!!!!SEGMENT: pl-wn--mus-iii-601--005-001_janiewicz-feliks--ve-trio-allegro.krn
!!!cenid: 17xx:2399
!!!COM: Janiewicz, Feliks
!!!COM-rismid: pe30011012
!!!CDT:
!!!CNT:
!!!OPR: Ve Trio
!!!OTL: Allegro
!!!OMV: 001
!!!PDT:
!!!AGN:
!!!SMS-siglum: PL-Wn
!!!SMS-shelfmark: Mus.III.601
!!!SMS-shelfwork: 005-001 M
!!!SMS-variant:
!!!SMS-altvar:
!!!NIFC-rismid: 990069598
!!!URL-scan: https://polona.pl/item/six-trios-pour-deux-violons-basse,MTAxMDA3MzY2/0/#item
!!!ONB-nifc: UWAGA: źródło zawiera 6 Trio na 2 skrzypiec i wiolonczelę. Violino Primo (od skanu 3), Violino Secondo (od skanu 37), Basso (od skanu 61). Basso to partia wiolonczeli. Części Trio: 1. Allegro, 2. Le Chant des Juifs (2 cz. razem attacca)
!!!AIN: 1 cello 2 violn
!!!key: e
**kern	**dynam	**kern	**dynam	**kern	**dynam
*part3	*part3	*part2	*part2	*part1	*part1
*staff3	*	*staff2	*	*staff1	*
*I"BASSO	*	*I"VIOLINO SECONDO	*	*I"VIOLINO PRIMO	*
*I'vlc	*	*I'vl II	*	*I'vl I	*
*ICstr	*	*ICstr	*	*ICstr	*
*Icello	*	*Ivioln	*	*Ivioln	*
*clefF4	*	*clefG2	*	*clefG2	*
*k[f#]	*	*k[f#]	*	*k[f#]	*
*e:	*	*e:	*	*e:	*
*M3/4	*	*M3/4	*	*M3/4	*
=1	=1	=1	=1	=1	=1
!LO:TX:a:B:t=Allegro	!	!LO:TX:a:B:t=Allegro	!	!LO:TX:a:B:t=Allegro	!LO:DY:b:t=F
(4E\	.	(4b/	.	2.ee\	f
4F#\	.	4a/	.	.	.
4E\)	.	4g/)	.	.	.
=2	=2	=2	=2	=2	=2
(4D#X/	.	(4f#/	.	2.ff#\	.
4C#X/	.	4e/	.	.	.
4BB/)	.	4d#X/)	.	.	.
=3	=3	=3	=3	=3	=3
.	.	.	.	8qqaa/	.
4E\	.	[2.B/	.	4gg\	.
4D#X\	.	.	.	4ff#\	.
[4E\	.	.	.	4gg\	.
=4	=4	=4	=4	=4	=4
!	!	!	!	!LO:TX:b:i:t=rinf	!
4E\]	.	2B/]	.	4ff#\	.
4D#X\	.	.	.	4.bb\	.
4BB/	.	4f#/	.	.	.
.	.	.	.	8aa\	.
=5	=5	=5	=5	=5	=5
8qqBB/	.	8qqa/	.	8qqaa/	.
4G\	.	4g/	.	4gg\	.
4F#\	.	4f#/	.	4ff#\	.
4G\	.	4g/	.	4gg\	.
=6	=6	=6	=6	=6	=6
4E\	.	4e/	.	4ee\	.
!LO:TX:b:i:t=rinf	!	!LO:TX:b:i:t=rinf	!	!LO:TX:b:i:t=rinf	!
2F#\	.	2f#/	.	2ff#\	.
=7	=7	=7	=7	=7	=7
4BB/	p	8b/L	p	2dd#X\	p
.	.	8f#/	.	.	.
4F#\	.	8d#X/	.	.	.
.	.	8f#/	.	.	.
4FF#/	.	8e/	.	8cc#X\L	.
.	.	8f#/J	.	8dd#\J	.
=8	=8	=8	=8	=8	=8
4BB/	.	2d#X/	.	2b\	.
8BB/L	.	.	.	.	.
8C#X/	.	.	.	.	.
8D#X/	.	4r	.	4r	.
8BB/J	.	.	.	.	.
=9	=9	=9	=9	=9	=9
2.E\	p	(4gg\	p	(4bb\	p
.	.	4ff#\	.	4aa\	.
.	.	4ee\)	.	4gg\)	.
=10	=10	=10	=10	=10	=10
2.F#\	.	(4dd#X\	.	(4ff#\	.
.	.	4cc#X\	.	4ee\	.
.	.	4b\)	.	4dd#X\)	.
=11	=11	=11	=11	=11	=11
8qqA/	.	.	.	.	.
4G\	.	4ee\	.	[2.b\	.
4F#\	.	4dd#X\	.	.	.
4G\	.	[4ee\	.	.	.
!LO:LB:g=original	!	!	!	!	!
=12	=12	=12	=12	=12	=12
4F#\	.	4ee\]	.	2b\]	.
4.B\	.	4dd#X\	.	.	.
.	.	4b\	.	4ff#\	.
8A\	.	.	.	.	.
!	!	!LO:LB:g=original	!	!LO:LB:g=original	!
=13	=13	=13	=13	=13	=13
!	!	!	!LO:HP:b:t=cres	!	!LO:HP:b:t=cres
4G\	.	4b\	<	2.ee\	<
2cn\	>	2g/	.	.	.
=14	=14	=14	=14	=14	=14
.	.	8qqb/	.	8qqgg/	.
4A\	]	4a/	.	4ff#\	.
[2d\	>	4f#/	.	4ee\	.
.	.	4a/	.	4ff#\	.
=15	=15	=15	=15	=15	=15
.	.	8qqcc/	.	.	.
4d\]	]	4b\	.	2.gg\	.
4c\	.	4g/	.	.	.
4B\	.	4b\	.	.	.
=16	=16	=16	=16	=16	=16
.	.	8qqdd/	.	.	.
4A\	.	4cc\	.	2.aa\	.
4G\	.	4b\	.	.	.
4F#\	.	4cc\	.	.	.
=17	=17	=17	=17	=17	=17
.	.	.	.	8qqccc/	.
2.G\	.	4b\	.	4bb\	.
.	.	4cc\	.	4aa\	.
.	.	4b\	.	4bb\	.
=18	=18	=18	=18	=18	=18
.	.	.	.	8qqddd/	.
2.A\	.	4a/	.	4ccc#X\	.
.	.	4g/	.	4bb\	.
.	.	4e/	.	4ccc#\	.
=19	=19	=19	=19	=19	=19
!	!	!	!	!	!LO:DY:b:t=F
4D\	.	4d/	.	4.ddd\	f
4r	.	4r	.	.	.
.	.	.	.	16ccc#X\LL	.
.	.	.	.	16bb\JJ	.
4r	.	4r	.	16aa\LL	.
.	.	.	.	16gg\	.
.	.	.	.	16ff#\	.
.	.	.	.	16ee\JJ	.
=20	=20	=20	=20	=20	=20
!	!LO:DY:b:t=F	!	!LO:DY:b:t=F	!	!
4.DD/	f	4.dd\	f	4dd\	.
.	.	.	.	4r	.
(16EE/LL	.	(16cc#X/LL	.	.	.
16FF#/JJ	.	16b/JJ	.	.	.
16GG/LL	.	16a/LL	.	4r	.
16AA/	.	16g/	.	.	.
16BB/	.	16f#/	.	.	.
16C#X/JJ)	.	16e/JJ)	.	.	.
=21	=21	=21	=21	=21	=21
4D\	.	4.d/	.	4.ddd\	.
4r	.	.	.	.	.
.	.	(16e/LL	.	16ccc#X\LL	.
.	.	16f#/JJ	.	16bb\JJ	.
4r	.	16g/LL	.	16aa\LL	.
.	.	16a/	.	16gg\	.
.	.	16b/	.	16ff#\	.
.	.	16cc#X/JJ)	.	16ee\JJ	.
=22	=22	=22	=22	=22	=22
4.D\	.	4.dd\	.	4.dd\	.
(16C#X/LL	.	(16cc#X/LL	.	16cc#X\LL	.
16BB/JJ	.	16b/JJ	.	16b\JJ	.
16AA/LL	.	16a/LL	.	16a/LL	.
16GG/	.	16g/	.	16g/	.
16FF#/	.	16f#/	.	16f#/	.
16EE/JJ)	.	16e/JJ)	.	16e/JJ	.
!	!	!	!	!LO:LB:g=original	!
=23	=23	=23	=23	=23	=23
4DD/	.	4d/	.	4d/	.
4F#\	.	4d/ 4cc	.	4dd\ 4cccn	.
4F#\	.	4d/ 4cc	.	4dd\ 4ccc	.
=24	=24	=24	=24	=24	=24
4F#\	.	4d/ 4cc	.	4dd\ 4ccc	.
4r;	.	4r	.	4r;	.
4r	.	4r;	.	4r	.
!	!	!LO:LB:g=original	!	!	!
=25	=25	=25	=25	=25	=25
!LO:TX:a:t=4	!	!	!	!	!
!LO:N:vis=00	!	!	!	!	!
0.r	.	8g'\L	p	2.bb\	p
.	.	8dd'\	.	.	.
.	.	8b'\	.	.	.
.	.	8dd'\	.	.	.
.	.	8g'\	.	.	.
.	.	8dd'\J	.	.	.
=26	=26	=26	=26	=26	=26
!	!	!	!	!LO:TX:b:i:t=dol	!
.	.	4b\	.	(8aa\L	.
.	.	.	.	8gg\	.
.	.	4r	.	8ff#\	.
.	.	.	.	8gg\	.
.	.	4r	.	8ff#\	.
.	.	.	.	8gg\J)	.
=27	=27	=27	=27	=27	=27
.	.	8f#'\L	.	2.ccc\	.
.	.	8dd'\	.	.	.
.	.	8a'\	.	.	.
.	.	8dd'\	.	.	.
.	.	8a'\	.	.	.
.	.	8dd'\J	.	.	.
=28	=28	=28	=28	=28	=28
.	.	4cc\	.	(8bb\L	.
.	.	.	.	8aa\	.
.	.	4r	.	8gg#X\	.
.	.	.	.	8aa\	.
.	.	4r	.	8gg#\	.
.	.	.	.	8aa\J)	.
=29	=29	=29	=29	=29	=29
!	!	!LO:TX:b:i:t=rinf	!	!LO:TX:b:i:t=rinf	!
4GG/	.	4b\	.	[2.ddd\	.
4BB/	.	4g/	.	.	.
4D\	.	4d/	.	.	.
!LO:LB:g=original	!	!	!	!	!
=30	=30	=30	=30	=30	=30
4G\	.	4B/	.	4ddd\]	.
4B\	.	4g/	.	4bb\	.
4c#X\	.	4e/	.	4gg\	.
=31	=31	=31	=31	=31	=31
4d\	p	4a/	p	[4ff#\	p
4A\	.	4dd\	.	8.ff#\L]	.
.	.	.	.	16aa\K	.
4AA/	.	4cc#X\	.	8.gg\	.
.	.	.	.	16ee\Jk	.
=32	=32	=32	=32	=32	=32
8D\L	.	4dd\	.	4dd\	.
8C#X\	.	.	.	.	.
8D\	.	4r	.	4r	.
8E\	.	.	.	.	.
8F#\	.	4r	.	4r	.
8D\J	.	.	.	.	.
=33	=33	=33	=33	=33	=33
!	!	!LO:TX:b:i:t=dol	!	!	!
8GG/L	p	2.dd\	.	2.bb\	p
8G/	.	.	.	.	.
8D/	.	.	.	.	.
8G/	.	.	.	.	.
8GG/	.	.	.	.	.
8G/J	.	.	.	.	.
!	!	!	!	!LO:LB:g=original	!
=34	=34	=34	=34	=34	=34
4GG/	.	8cc/L	.	(8aa\L	.
.	.	8b/	.	8gg\	.
4r	.	8a/	.	8ff#\	.
.	.	8b/	.	8gg\	.
4r	.	8a/	.	8ff#\	.
.	.	8g/J	.	8gg\J)	.
=35	=35	=35	=35	=35	=35
8DD/L	.	2.f#/	.	2.ccc\	.
8D/	.	.	.	.	.
8AA/	.	.	.	.	.
8D/	.	.	.	.	.
8FF#/	.	.	.	.	.
8AA/J	.	.	.	.	.
=36	=36	=36	=36	=36	=36
4DD/	.	8dd\L	.	(8bb\L	.
.	.	8cc\	.	8aa\	.
4r	.	8b\	.	8gg#X\	.
.	.	8cc\	.	8aa\	.
4r	.	8b\	.	8gg#\	.
.	.	8a\J	.	8aa\J)	.
=37	=37	=37	=37	=37	=37
!	!LO:DY:b:t=F	!	!LO:DY:b:t=F	!	!LO:DY:b:t=F
[2.G\	f	8b-X/L	f	4ddd\	f
.	.	8g/	.	.	.
.	.	8f#X/	.	4bb-X\	.
.	.	8g/	.	.	.
.	.	8a/	.	4eee-X\	.
.	.	8b-/J	.	.	.
!	!	!LO:LB:g=original	!	!	!
=38	=38	=38	=38	=38	=38
4G\]	.	8a/L	.	4ccc\	.
.	.	8b-X/	.	.	.
4F#X\	.	8cc/	.	4aa\	.
.	.	8d/	.	.	.
[4D\	.	8en/	.	4ddd\	.
.	.	8f#X/J	.	.	.
=39	=39	=39	=39	=39	=39
8D/L]	.	8g/L	.	4bb-X\	.
8C/	.	8a/	.	.	.
8BB-X/	.	8b-X/	.	4gg\	.
8AA/	.	8cc/	.	.	.
8GG/	.	8b-/	.	4aa\	.
8FFn/J	.	8a/J	.	.	.
=40	=40	=40	=40	=40	=40
4EE-X/	.	8g/L	.	4bb-X\	.
.	.	8a/	.	.	.
2E-X\	.	8b-X/	.	4gg\	.
.	.	8a/	.	.	.
.	.	8g/	.	4cc#X\	.
.	.	8a/J	.	.	.
!LO:LB:g=original	!	!	!	!	!
=41	=41	=41	=41	=41	=41
8D\L	.	4f#X/	.	4dd\	.
8d\	.	.	.	.	.
8A\	.	4f#/	.	4dd\	.
8d\	.	.	.	.	.
8F#X\	.	4f#/	.	4dd\	.
8A\J	.	.	.	.	.
=42	=42	=42	=42	=42	=42
8D/L	.	4f#/	.	4dd\	.
8En/	.	.	.	.	.
8D/	.	4r	.	4r	.
8C/	.	.	.	.	.
8BB/	.	4r	.	4r	.
8AA/J	.	.	.	.	.
=43	=43	=43	=43	=43	=43
*	*	*	*	*Xtuplet	*
!	!LO:DY:b:t=F	!	!LO:DY:b:t=F	!	!LO:DY:b:t=F
4GG/	f	4d/ 4bn	f	12ff#\L	f
.	.	.	.	12dd\	.
.	.	.	.	12een\J	.
4r	.	4r	.	12ff#X\L	.
.	.	.	.	12gg\	.
.	.	.	.	12aa\J	.
4G\	.	4d/ 4b	.	12bbn\L	.
.	.	.	.	12cccn\	.
.	.	.	.	12ddd\J	.
!	!	!	!	!LO:LB:g=original	!
=44	=44	=44	=44	=44	=44
4F#\	.	4d/ 4a	.	(12ccc#X\L	.
.	.	.	.	12ddd\)	.
.	.	.	.	12aa'\J	.
4r	.	4r	.	(12cccn\L	.
.	.	.	.	12ddd\)	.
.	.	.	.	12aa'\J	.
4F#\	.	4d/ 4a	.	(12ccc#X\L	.
.	.	.	.	12ddd\)	.
.	.	.	.	12aa'\J	.
=45	=45	=45	=45	=45	=45
4G\	p	4d/ 4b	p	12bb\L	p
.	.	.	.	12dd\	.
.	.	.	.	12ee\J	.
4r	.	4r	.	12ff#\L	.
.	.	.	.	12gg\	.
.	.	.	.	12aa\J	.
4G\	.	4d/ 4b	.	12bb\L	.
.	.	.	.	12ccc\	.
.	.	.	.	12ddd\J	.
=46	=46	=46	=46	=46	=46
4F#\	.	4d/ 4a	.	(12ccc#X\L	.
.	.	.	.	12ddd\)	.
.	.	.	.	12aa'\J	.
4r	.	4r	.	(12cccn\L	.
.	.	.	.	12ddd\)	.
.	.	.	.	12aa'\J	.
4F#\	.	4d/ 4a	.	(12ccc#X\L	.
.	.	.	.	12ddd\)	.
.	.	.	.	12aa'\J	.
=47	=47	=47	=47	=47	=47
2G\	<	8d/L	<	12bb\L	.
.	.	.	.	(12ddd\	.
.	.	8B/J	.	.	.
.	.	.	.	12cccn\J)	.
.	.	[2g/	.	12bb'\L	.
.	.	.	.	(12bb\	<
.	.	.	.	12aa\J)	.
4B\	.	.	.	12gg'\L	.
.	.	.	.	(12gg\	.
.	.	.	.	12ff#\J)	[[
!	!	!	!	!LO:LB:g=original	!
=48	=48	=48	=48	=48	=48
2c\	[	8g/L]	.	12ee'\L	<
.	.	.	.	(12eee\	.
.	.	8e/J	[	.	.
.	.	.	.	12ddd\J)	.
.	.	2a/	.	12ccc'\L	.
.	.	.	.	(12ccc\	.
.	.	.	.	12bb\J)	.
4C/	.	.	.	12aa'\L	.
.	.	.	.	(12aa\	.
.	.	.	.	12gg\J)	[[
=49	=49	=49	=49	=49	=49
!	!LO:DY:b:t=F	!	!LO:DY:b:t=F	!	!LO:DY:b:t=F
4D\	f	4a/ 4cc	f	16ff#\KL	f
.	.	.	.	8.fff#\J	.
4E\	.	4g/ 4b	.	16gg\KL	.
.	.	.	.	8.ggg\J	.
4r	.	4r	.	4r	.
=50	=50	=50	=50	=50	=50
!	!	!	!	!LO:TUP:a:problem:klamra łukowa	!
4C/	p	4e/	p	12eee\L	p
.	.	.	.	12ccc\	.
.	.	.	.	12aa\J	.
4r	.	4r	.	4ee\	.
.	.	.	.	8qqgg/	.
4D\	.	4c/	.	4ff#t\	.
!	!	!LO:LB:g=original	!	!	!
=51	=51	=51	=51	=51	=51
!	!LO:DY:b:t=F	!	!LO:DY:b:t=F	!	!
4GG/	f	4B/	f	12gg\L	.
.	.	.	.	12dd\	.
.	.	.	.	12ee\J	.
4r	.	4r	.	12ff#\L	.
.	.	.	.	12gg\	.
.	.	.	.	12aa\J	.
4G\	.	4d/ 4b	.	12bb\L	.
.	.	.	.	12ccc\	.
.	.	.	.	12ddd\J	.
=52	=52	=52	=52	=52	=52
4F#\	.	4d/ 4a	.	(12ccc#X\L	.
.	.	.	.	12ddd\)	.
.	.	.	.	12aa'\J	.
4F#\	.	4d/ 4a	.	(12cccn\L	.
.	.	.	.	12ddd\)	.
.	.	.	.	12aa'\J	.
4F#\	.	4d/ 4a	.	(12ccc#X\L	.
.	.	.	.	12ddd\)	.
.	.	.	.	12aa'\J	.
!	!	!	!	!LO:LB:g=original	!
=53	=53	=53	=53	=53	=53
4G\	p	4d/ 4b	p	12bb\L	.
.	.	.	.	12dd\	.
.	.	.	.	12ee\J	.
4r	.	4r	.	12ff#\L	.
.	.	.	.	12gg\	.
.	.	.	.	12aa\J	.
4G\	.	4d/ 4b	.	12bb\L	.
.	.	.	.	12cccn\	.
.	.	.	.	12ddd\J	.
=54	=54	=54	=54	=54	=54
4F#\	.	4d/ 4a	.	12ccc#X\L	.
.	.	.	.	12ddd\	.
.	.	.	.	12aa\J	.
4F#\	.	4d/ 4a	.	12cccn\L	.
.	.	.	.	12ddd\	.
.	.	.	.	12aa\J	.
4F#\	.	4d/ 4a	.	12ccc#X\L	.
.	.	.	.	12ddd\	.
.	.	.	.	12aa\J	.
!LO:LB:g=original	!	!	!	!	!
=55	=55	=55	=55	=55	=55
4G\	.	4d/ 4b	.	(12bb\L	.
.	.	.	.	12ddd\)	.
.	.	.	.	12aa'\J	.
4r	.	4r	.	(12bb\L	.
.	.	.	.	12ddd\)	.
.	.	.	.	12aa'\J	.
!LO:TX:b:i:t=rinf	!	!	!	!	!
4D\	.	[>4b/	.	(12bb\L	.
.	.	.	.	12ddd\)	.
!	!	!	!	!LO:TX:b:i:t=rinf	!
.	.	.	.	12ff#'\J	.
=56	=56	=56	=56	=56	=56
4E\	.	4b/]	.	(12gg\L	.
.	.	.	.	12bb\)	.
.	.	.	.	12ff#'\J	.
4r	.	4r	.	(12gg\L	.
.	.	.	.	12bb\)	.
.	.	.	.	12ff#'\J	.
4BB/	.	[4g/	.	12gg\L	.
.	.	.	.	(12bb\	.
!	!	!	!	!LO:TX:b:i:t=rinf	!
.	.	.	.	12dd#X\J)	.
=57	=57	=57	=57	=57	=57
4C/	.	4g/]	.	(12ee\L	.
.	.	.	.	12gg\)	.
.	.	.	.	12dd#X'\J	.
4r	.	4r	.	(12ee\L	.
.	.	.	.	12gg\)	.
.	.	.	.	12dd#'\J	.
4GG/	.	[4e/	.	(12ee\L	.
.	.	.	.	12gg\)	.
!	!	!	!	!LO:TX:b:i:t=rinf	!
.	.	.	.	12b'\J	.
!	!	!	!	!LO:LB:g=original	!
=58	=58	=58	=58	=58	=58
4AA/	.	4e/]	.	12cc\L	.
.	.	.	.	12ee\	.
.	.	.	.	12ddn\J	.
4r	.	4r	.	12cc\L	.
.	.	.	.	12ee\	.
.	.	.	.	12dd\J	.
4r	.	4r	.	12cc\L	.
.	.	.	.	12dd\	.
.	.	.	.	12b\J	.
=59	=59	=59	=59	=59	=59
4C/	.	4e/	.	12a\L	.
.	.	.	.	12ee\	.
.	.	.	.	12dd\J	.
4r	.	4r	.	12cc\L	.
.	.	.	.	12ee\	.
.	.	.	.	12dd\J	.
4r	.	4r	.	12cc\L	.
.	.	.	.	12dd\	.
.	.	.	.	12b\J	.
=60	=60	=60	=60	=60	=60
4C/	.	4e/	.	12a\L	.
.	.	.	.	12cc\	.
.	.	.	.	12ee\J	.
4C/	.	4e/	.	12aa\L	.
.	.	.	.	12ee\	.
.	.	.	.	12aa\J	.
4C/	.	4e/	.	12ccc\L	.
.	.	.	.	12aa\	.
.	.	.	.	12ccc\J	.
=61	=61	=61	=61	=61	=61
4C/	.	4e/	.	12eee\L	.
.	.	.	.	12ccc\	.
.	.	.	.	12aa\J	.
4r	.	4r	.	12ee\L	.
.	.	.	.	12aa\	.
.	.	.	.	12ccc\J	.
4r	.	4r	.	12eee\L	.
.	.	.	.	12ccc\	.
.	.	.	.	12aa\J	.
=62	=62	=62	=62	=62	=62
4D\	.	4g/ 4b	.	12ddd\L	.
.	.	.	.	12bb\	.
.	.	.	.	12gg\J	.
4r	.	4r	.	12dd\L	.
.	.	.	.	12gg\	.
.	.	.	.	12bb\J	.
4r	.	4r	.	12ddd\L	.
.	.	.	.	12bb\	.
.	.	.	.	12gg\J	.
!	!	!	!	!LO:LB:g=original	!
=63	=63	=63	=63	=63	=63
4d\	.	4g/ 4b	.	12ddd\L	.
.	.	.	.	12bb\	.
.	.	.	.	12gg\J	.
4r	.	4r	.	12dd\L	.
.	.	.	.	12gg\	.
.	.	.	.	12bb\J	.
4r	.	4r	.	12ddd\L	.
.	.	.	.	12bb\	.
.	.	.	.	12gg\J	.
=64	=64	=64	=64	=64	=64
4D\	.	4g/ 4b	.	12ddd\L	.
.	.	.	.	12bb\	.
.	.	.	.	12gg\J	.
4r	.	4r	.	12bb\L	.
.	.	.	.	12gg\	.
.	.	.	.	12dd\J	.
4r	.	4r	.	12gg\L	.
.	.	.	.	12dd\	.
.	.	.	.	12b\J	.
=65	=65	=65	=65	=65	=65
8D\L	.	8c/L 8f#	.	2.aT/	.
8E-X\J	.	8c/ 8f#	.	.	.
!LO:TX:t=P:problem:mixed beam	!	!	!	!	!
8D\L	.	8c/ 8f#	.	.	.
8D\	.	8c/ 8f#	.	.	.
8DD/	.	8c/ 8f#	.	.	.
8DD/J	.	8c/J 8f#	.	.	.
=66	=66	=66	=66	=66	=66
!	!	!	!	!LO:TX:a:i:t=dol	!
.	.	.	.	8qqg/	.
8GG/L	p	8B/L	p	(2gg\	.
8G\	.	8d/	.	.	.
8G\	.	8B/	.	.	.
8G\	.	8d/	.	.	.
8G\	.	8B/	.	4ff#\)	.
8G\J	.	8d/J	.	.	.
!	!	!LO:LB:g=original	!	!	!
=67	=67	=67	=67	=67	=67
*tremolo	*	*	*	*	*
8G\L	.	8c/L	.	(4ee\	.
8G\	.	8e/	.	.	.
8G\	.	8c/	.	4ff#\	.
8G\	.	8d/	.	.	.
8G\	.	8A/	.	4dd\)	.
8G\J	.	8d/J	.	.	.
=68	=68	=68	=68	=68	=68
8GG/L	.	8B/L	.	(2gg\	.
8G\	.	8d/	.	.	.
8G\	.	8B/	.	.	.
8G\	.	8d/	.	.	.
8G\	.	8B/	.	4ff#\)	.
8G\J	.	8d/J	.	.	.
=69	=69	=69	=69	=69	=69
8G\L	.	8c/L	.	(4ee\	.
8G\	.	8e/	.	.	.
8G\	.	8c/	.	4ff#\	.
8G\	.	8d/	.	.	.
8G\	.	8A/	.	4dd\)	.
8G\J	.	8d/J	.	.	.
*Xtremolo	*	*	*	*	*
!LO:LB:g=original	!	!	!	!	!
=70	=70	=70	=70	=70	=70
8r	.	8r	.	2.gg\	>]
!	!LO:HP:a	!	!	!	!
8GG\L	>	8B/L	>	.	.
8BB\	.	8d/	.	.	.
8D\	.	8g/	.	.	.
8G\	.	8b/	.	.	.
8GG\J	]]	8b/J	]]	.	.
=71	=71	=71	=71	=71	=71
8r	.	8r	.	2.ff#\	>]
!	!LO:HP:a	!	!	!	!
8BB\L	>	8d#X/L	>	.	.
8D#X\	.	8f#/	.	.	.
8F#\	.	8a/	.	.	.
8G\	.	8b/	.	.	.
8F#\J	]]	8b/J	]]	.	.
=72:|!	=72:|!	=72:|!	=72:|!	=72:|!	=72:|!
!	!	!	!	!	!LO:DY:b:t=F
8r	.	8r	.	2.ee\	f
!	!LO:DY:b:t=F	!	!LO:DY:b:t=F	!	!
8Cn\L	f	8e/L	f	.	.
8E\	.	8gn/	.	.	.
8G\	.	8ccn/	.	.	.
8c\	.	8g/	.	.	.
8C\J	.	8g/J	.	.	.
=73	=73	=73	=73	=73	=73
8r	.	8r	.	2.ffn\	.
8GG\L	.	8B/L	.	.	.
8BB\	.	8d/	.	.	.
8D\	.	8g/	.	.	.
8G\	.	8b/	.	.	.
8GG\J	.	8dd/J	.	.	.
=74	=74	=74	=74	=74	=74
8r	.	8r	.	4gg\	.
8E\L	.	8g/L	.	.	.
8A\	.	8cc/	.	4ee\	.
8G\	.	8b/	.	.	.
8Fn\	.	8a/	.	4ffn\	.
8D\J	.	8fn/J	.	.	.
!	!	!	!	!LO:LB:g=original	!
=75	=75	=75	=75	=75	=75
8G\L	.	8b/L	.	4dd\	.
8Fn\	.	8a/	.	.	.
8E\	.	8g/	.	4ee\	.
8C\	.	8e/	.	.	.
8A\	.	8fn/	.	4ccn\	.
8G\J	.	8e/J	.	.	.
!	!	!LO:LB:g=original	!	!	!
=76	=76	=76	=76	=76	=76
8Fn/L	.	8d/L	.	2ffn\	.
8D/	.	8B/	.	.	.
8BB/	.	8G/	.	.	.
8GG/J	.	8B/	.	.	.
8C\L	.	8G/	.	4ee\	.
8E\J	.	8c/J	.	.	.
=77	=77	=77	=77	=77	=77
8G\L	.	4B/	.	4dd\	.
8F#X\	.	.	.	.	.
8G\	.	4r	.	4r	.
8GG/	.	.	.	.	.
8AA/	.	4r	.	4r	.
8BB/J	.	.	.	.	.
!LO:LB:g=original	!	!	!	!	!
=78	=78	=78	=78	=78	=78
!	!LO:DY:b:t=F	!	!LO:DY:b:t=F	!	!
4C/	f	4G/ 4e	f	12cc\L	.
.	.	.	.	12dd\	.
.	.	.	.	12ee\J	.
4r	.	4r	.	12ffn\L	.
.	.	.	.	12gg\	.
.	.	.	.	12aa\J	.
4r	.	4r	.	12bb\L	.
.	.	.	.	12ccc\	.
.	.	.	.	12ddd\J	.
=79	=79	=79	=79	=79	=79
*Xtuplet	*	*Xtuplet	*	*	*
12C\L	.	12e/L	.	2eee\	.
12D\	.	12f#/	.	.	.
12E\J	.	12g/J	.	.	.
12F#\L	.	12a\L	.	.	.
12G\	.	12b\	.	.	.
12A\J	.	12cc\J	.	.	.
12B\L	.	12dd\L	.	4ddd\	.
12c\	.	12ee\	.	.	.
12d\J	.	12ffn\J	.	.	.
=80	=80	=80	=80	=80	=80
2e\	.	2gg\	.	12ccc\L	.
.	.	.	.	12eee\	.
.	.	.	.	12ddd\J	.
.	.	.	.	12ccc\L	.
.	.	.	.	12eee\	.
.	.	.	.	12ccc\J	.
4d\	.	4ffn\	.	12gg\L	.
.	.	.	.	12aa\	.
.	.	.	.	12bb\J	.
=81	=81	=81	=81	=81	=81
4c\	.	4ee\	.	12ccc\L	.
.	.	.	.	12bb\	.
.	.	.	.	12ccc\J	.
4r	.	4r	.	12ddd\L	.
.	.	.	.	12ccc\	.
.	.	.	.	12ddd\J	.
4r	.	4r	.	12eee\L	.
.	.	.	.	12ddd\	.
.	.	.	.	12eee\J	.
=82	=82	=82	=82	=82	=82
2D\	.	4fn/	.	12fffn\L	.
.	.	.	.	12ddd\	.
.	.	.	.	12eee\J	.
.	.	(4a/	<	12fff\L	.
.	.	.	.	12ddd\	.
.	.	.	.	12eee\J	.
4C/	.	4a-X/)	[[	12fff\L	.
.	.	.	.	12ddd\	.
.	.	.	.	12eee\J	.
!	!	!	!	!LO:LB:g=original	!
=83	=83	=83	=83	=83	=83
(4BB/	.	4g/	.	12fffn\L	.
.	.	.	.	12ddd\	.
.	.	.	.	12eee\J	.
4AA/	.	2fn/	.	12fff\L	.
.	.	.	.	12ddd\	.
.	.	.	.	12eee\J	.
4AA-X/)	<	.	.	12fff\L	.
.	.	.	.	12ddd\	.
.	.	.	.	12eee\J	.
=84	=84	=84	=84	=84	=84
4GG/	[	4d/ 4f#	.	12fffn\L	.
.	.	.	.	12gg\	.
.	.	.	.	12ff#X\J	.
4r	.	4r	.	12gg\L	.
.	.	.	.	12aa\	.
.	.	.	.	12bb\J	.
4r	.	4r	.	12ccc\L	.
.	.	.	.	12ddd\	.
.	.	.	.	12eee\J	.
=85	=85	=85	=85	=85	=85
4G\	.	4d/ 4bn	.	12fffn`\L	.
.	.	.	.	(12fff\	.
.	.	.	.	12eee\J)	.
4r	.	4r	.	12ddd\L	.
.	.	.	.	12ccc\	.
.	.	.	.	12bb\J	.
4r	.	4r	.	12aa\L	.
.	.	.	.	12gg\	.
.	.	.	.	12ff#\J	.
=86	=86	=86	=86	=86	=86
4C/	.	(12cc\L	p	(12ee\L	p
.	.	12ee\)	.	12gg\)	.
.	.	12ee'\J	.	12gg'\J	.
4r	.	(12gg\L	.	(12ccc\L	.
.	.	12ee\)	.	12gg\)	.
.	.	12ee'\J	.	12gg'\J	.
!	!	!LO:TX:b:i:t=rinf	!	!LO:TX:b:i:t=rinf	!
4BB/	.	(12dd\L	.	(12ffn\L	.
.	.	12ee\	.	12gg\	.
.	.	12dd\J)	.	12ff\J)	.
!	!	!LO:LB:g=original	!	!	!
=87	=87	=87	=87	=87	=87
4C/	.	(12cc\L	p	12ee\L	p
.	.	12ee\)	.	12gg\	.
.	.	12ee'\J	.	12gg\J	.
4r	.	(12gg\L	.	12ccc\L	.
.	.	12ee\)	.	12gg\	.
.	.	12ee'\J	.	12gg\J	.
!	!	!LO:TX:b:i:t=rinf	!	!LO:TX:b:i:t=rinf	!
4BB/	.	(12dd\L	.	12ffn\L	.
.	.	12ee\	.	12gg\	.
.	.	12dd\J)	.	12ff\J	.
!	!	!	!	!LO:LB:g=original	!
=88	=88	=88	=88	=88	=88
4C/	.	4cc\	.	12ee'\L	.
.	.	.	.	(12eee\	.
.	.	.	.	12ddd\J)	.
4r	.	4r	.	12ccc'\L	.
.	.	.	.	(12ccc\	.
.	.	.	.	12bb\J)	.
4r	.	4r	.	12aa\L	.
.	.	.	.	12aa\	.
.	.	.	.	12gg\J	.
=89	=89	=89	=89	=89	=89
!	!	!LO:TX:t=P:problem:mixed beam	!	!	!
4D\	.	12d/L	.	(2.ff#X\	.
.	.	12cc\	.	.	.
.	.	12b\J	.	.	.
4r	.	12cc\L	.	.	.
.	.	12a\	.	.	.
.	.	12b\J	.	.	.
4r	.	12cc\L	.	.	.
.	.	12dd\	.	.	.
.	.	12ee-X\J	.	.	.
=90	=90	=90	=90	=90	=90
4B\	.	(2dd\	.	(12ffn\L)	.
.	.	.	.	12ddd\)	.
.	.	.	.	12ddd'\J	.
4G#X\	.	.	.	(12ddd\L	.
.	.	.	.	12ff\)	.
.	.	.	.	12ff'\J	.
4A\	.	4cc\	.	(12ee\L	.
.	.	.	.	12ccc\)	.
.	.	.	.	12ccc'\J	.
=91	=91	=91	=91	=91	=91
4Fn\	.	4cc\)	.	(12aa\L	.
.	.	.	.	12ffn\)	.
.	.	.	.	12dd'\J	.
4G\	.	4en/	.	(12gg\L	.
.	.	.	.	12ee\)	.
.	.	.	.	12cc'\J	.
4GG/	.	8d/L	.	(12ff\L	.
.	.	.	.	12dd\)	.
.	.	8f#/J	.	.	.
.	.	.	.	12b'\J	.
!LO:LB:g=original	!	!	!	!	!
=92	=92	=92	=92	=92	=92
4C/	.	4e/	.	12cc'\L	.
.	.	.	.	(12eee\	.
.	.	.	.	12ddd\J)	.
4r	.	4r	.	12ccc'\L	.
.	.	.	.	(12ccc\	.
.	.	.	.	12bb\J)	.
4r	.	4r	.	12aa'\L	.
.	.	.	.	(12aa\	.
.	.	.	.	12gg\J)	.
!	!	!	!	!LO:LB:g=original	!
=93	=93	=93	=93	=93	=93
12D'\L	.	4r	.	(2.ff#X\	.
(12d\	.	.	.	.	.
12c\J)	.	.	.	.	.
12B'\L	.	12d/L	.	.	.
(12B\	.	(12dd\	.	.	.
12A\J)	.	12cc\J)	.	.	.
12G'\L	.	12b'\L	.	.	.
(12G\	.	(12b\	.	.	.
12A\J)	.	12cc\J)	.	.	.
=94	=94	=94	=94	=94	=94
2B\	.	4dd\	.	(12ffn\L)	.
.	.	.	.	12ddd\)	.
.	.	.	.	12ddd'\J	.
.	.	(4a-X/	.	(12ddd\L	.
.	.	.	.	12ff\)	.
.	.	.	.	12ff'\J	.
4c\	.	4g/)	.	(12ee\L	.
.	.	.	.	12ccc\)	.
.	.	.	.	12ccc'\J	.
=95	=95	=95	=95	=95	=95
4A\	.	2fn/	.	(12ccc\L	.
.	.	.	.	12ee\)	.
.	.	.	.	12ee'\J	.
4B\	.	.	.	(12dd\L	.
.	.	.	.	12bb\)	.
.	.	.	.	12bb'\J	.
4G#X\	.	4e/	.	(12bb\L	.
.	.	.	.	12dd\)	.
.	.	.	.	12dd'\J	.
=96	=96	=96	=96	=96	=96
!LO:TX:b:i:t=rinf	!	!LO:TX:b:i:t=rinf	!	!	!LO:DY:b:t=F
[2.A\	.	[2.e/	.	12cc\L	f
.	.	.	.	12a\	.
.	.	.	.	12cc\J	.
.	.	.	.	12ee\L	.
.	.	.	.	12cc\	.
.	.	.	.	12a\J	.
.	.	.	.	12aa\L	.
.	.	.	.	12ee\	.
.	.	.	.	12cc\J	.
=97	=97	=97	=97	=97	=97
4A\]	p	4e/]	p	12ccc\L	p
.	.	.	.	12aa\	.
.	.	.	.	12ee\J	.
4AA/	.	4e/	.	12aa\L	.
.	.	.	.	12ee\	.
.	.	.	.	12cc\J	.
4A\	.	4e/	.	12ee\L	.
.	.	.	.	12cc\	.
.	.	.	.	12a\J	.
=98	=98	=98	=98	=98	=98
!LO:TX:b:i:t=rinf	!	!LO:TX:a:i:t=rinf	!	!	!LO:DY:b:t=F
[2.Fn\	.	[2.c/	.	12cc\L	f
.	.	.	.	12a\	.
.	.	.	.	12cc\J	.
.	.	.	.	12ffn\L	.
.	.	.	.	12cc\	.
.	.	.	.	12a\J	.
.	.	.	.	12aa\L	.
.	.	.	.	12cc\	.
.	.	.	.	12a\J	.
!	!	!	!	!LO:LB:g=original	!
=99	=99	=99	=99	=99	=99
!	!	!	!LO:DY:a	!	!
4F\]	p	4c/]	p	12ccc\L	p
.	.	.	.	12aa\	.
.	.	.	.	12ffn\J	.
4FF#/	.	4c/	.	12aa\L	.
.	.	.	.	12ff\	.
.	.	.	.	12cc\J	.
4Fny\	.	4c/	.	12ff\L	.
.	.	.	.	12cc\	.
.	.	.	.	12a\J	.
!	!	!LO:LB:g=original	!	!	!
=100	=100	=100	=100	=100	=100
!LO:TX:b:i:t=rinf	!	!LO:TX:b:i:t=rinf	!	!	!LO:DY:b:t=F
[2.D#X\	.	2.c/ 2.f#X	.	12cc\L	f
.	.	.	.	12a\	.
.	.	.	.	12cc\J	.
.	.	.	.	12ff#X\L	.
.	.	.	.	12cc\	.
.	.	.	.	12a\J	.
.	.	.	.	12aa\L	.
.	.	.	.	12cc\	.
.	.	.	.	12a\J	.
=101	=101	=101	=101	=101	=101
4D#\]	.	4A/ 4f#	.	12ccc\L	.
.	.	.	.	12aa\	.
.	.	.	.	12ff#\J	.
4r	.	4r	.	12aa\L	.
.	.	.	.	12ff#\	.
.	.	.	.	12cc\J	.
4r	.	4r	.	12ff#\L	.
.	.	.	.	12cc\	.
.	.	.	.	12a\J	.
=102	=102	=102	=102	=102	=102
!LO:TX:a:t=I	!	!LO:TX:a:t=I	!	!	!
2.r	.	2.r	.	12cc/L	.
.	.	.	.	12a/	.
.	.	.	.	12f#/J	.
.	.	.	.	12a/L	.
.	.	.	.	12f#/	.
.	.	.	.	12d#X/J	.
.	.	.	.	12f#/L	.
.	.	.	.	12d#/	.
.	.	.	.	12c/J	.
=103	=103	=103	=103	=103	=103
4D#X\	.	4A/ 4f#	.	12A/L	.
.	.	.	.	12c/	.
.	.	.	.	12f#/J	.
4r	.	4r	.	12a\L	.
.	.	.	.	12cc\	.
.	.	.	.	12ff#\J	.
4r	.	4r	.	12aa\L	.
.	.	.	.	12ff#\	.
.	.	.	.	12aa\J	.
!	!	!	!	!LO:PB:g=original	!
=104	=104	=104	=104	=104	=104
4D#X\	.	4A/ 4f#	.	12ccc\L	.
.	.	.	.	12aa\	.
.	.	.	.	12ff#\J	.
4D#\	.	4A/ 4f#	.	12ccc\L	.
.	.	.	.	12aa\	.
.	.	.	.	12ff#\J	.
4D#\	.	4A/ 4f#	.	12ccc\L	.
.	.	.	.	12aa\	.
.	.	.	.	12ff#\J	.
=105	=105	=105	=105	=105	=105
.	.	.	.	8qqff#/	.
4D#X\	.	4A/ 4f#	.	[2.ccc\	.
4r	.	4r	.	.	.
4r	.	4r	.	.	.
=106	=106	=106	=106	=106	=106
!LO:TX:a:t=2	!	!LO:TX:a:t=2	!	!	!
!LO:N:vis=0	!	!LO:N:vis=0	!	!	!
1.r	.	1.r	.	8ccc\L]	.
.	.	.	.	8bb'\	.
.	.	.	.	8ddd'\	.
.	.	.	.	8ccc'\	.
.	.	.	.	8bb'\	.
.	.	.	.	8aa'\J	.
=107	=107	=107	=107	=107	=107
.	.	.	.	8gg'\L	.
.	.	.	.	8ff#'\	.
.	.	.	.	8aa'\	.
.	.	.	.	8gg'\	.
.	.	.	.	8ff#'\	.
.	.	.	.	8ee'\J	.
!LO:LB:g=original	!	!	!	!	!
=108	=108	=108	=108	=108	=108
4D#X\	p	4f#/	p	8dd#X'\L	.
.	.	.	.	8b'\	.
4D#\	.	4f#/	.	8a#X'\	.
.	.	.	.	8b'\	.
4D#\	.	4f#/	.	8a#'\	.
.	.	.	.	8b'\J	.
=109	=109	=109	=109	=109	=109
!	!	!	!	!	!LO:HP:a
(4D\	.	(4f#/	.	8a#X'\L	<
.	.	.	.	8b'\	.
4E\	.	4g/	.	8cc'\	.
.	.	.	.	8cc#X'\	.
4F#\)	.	4a/)	.	8dd'\	.
.	.	.	.	8dd#X'\J	[[
=110	=110	=110	=110	=110	=110
!	!	!	!	!	!LO:DY:b:t=F
(4G\	.	(4b/	.	2.ee\	f
4F#\	.	4a/	.	.	.
4E\)	.	4g/)	.	.	.
=111	=111	=111	=111	=111	=111
(<4D#X\	.	(4f#/	.	2.ff#\	.
4C#X/	.	4e/	.	.	.
4BB/)	.	4d#X/)	.	.	.
!	!	!	!	!LO:LB:g=original	!
=112	=112	=112	=112	=112	=112
.	.	.	.	8qqaa/	.
4E\	.	[2.B/	.	4gg\	.
4D#X\	.	.	.	4ff#\	.
[4E\	.	.	.	4gg\	.
=113	=113	=113	=113	=113	=113
4E\]	.	2B/]	.	4ff#\	.
!	!	!	!	!LO:TX:b:i:t=rinf	!
4D#X\	.	.	.	4.bb\	.
4BB/	.	4f#/	.	.	.
.	.	.	.	8aa\	.
=114	=114	=114	=114	=114	=114
8qqBB/	.	8qqa/	.	8qqaa/	.
!	!LO:DY:b:t=F	!	!LO:DY:b:t=F	!	!LO:DY:b:t=F
4G\	f	4g/	f	4gg\	f
4F#\	.	4f#/	.	4ff#\	.
4G\	.	4g/	.	4gg\	.
=115	=115	=115	=115	=115	=115
4E\	.	4e/	.	4ee\	.
!	!	!LO:TX:b:i:t=rinf	!	!LO:TX:b:i:t=rinf	!
2F#\	>]	2f#/	.	2ff#\	.
=116	=116	=116	=116	=116	=116
4BB/	.	8b/L	.	2dd#X\	.
.	.	8f#/	.	.	.
4F#\	.	8d#X/	.	.	.
.	.	8f#/	.	.	.
4FF#/	.	8e/	.	8cc#X\L	.
.	.	8f#/J	.	8dd#\J	.
=117	=117	=117	=117	=117	=117
4BB/	.	4d#X/	.	4b\	.
8BB/L	.	4r	.	4r	.
8C#X/	.	.	.	.	.
8D#X/	.	4r	.	4r	.
8BB/J	.	.	.	.	.
=118	=118	=118	=118	=118	=118
!	!	!LO:TX:a:t=2	!	!	!
!	!	!LO:N:vis=0	!	!	!
2.E\	p	1.r	.	(4gg\	p
.	.	.	.	4ff#\	.
.	.	.	.	4ee\)	.
=119	=119	=119	=119	=119	=119
2.F#\	.	.	.	(4dd#X\	.
.	.	.	.	4cc#X\	.
.	.	.	.	4b\)	.
=120	=120	=120	=120	=120	=120
(4G\	.	2.e/	p	(4bb\	.
4F#\	.	.	.	4aa\	.
4E\)	.	.	.	4gg\)	.
!	!	!LO:LB:g=original	!	!	!
=121	=121	=121	=121	=121	=121
(4D#X/	.	2.f#/	.	4ff#\	.
4C#X/	.	.	.	4ee\	.
4BB/)	.	.	.	4dd#X\	.
!LO:LB:g=original	!	!	!	!	!
=122	=122	=122	=122	=122	=122
!	!LO:HP:b:t=cres	!	!LO:HP:b:t=cres	!	!
(4B\	<	(4g/	<	2.ee\	.
4A\	.	4f#/	.	.	.
4G\)	.	4e/)	.	.	.
=123	=123	=123	=123	=123	=123
!	!	!	!	!	!LO:HP:b:t=cres
(4F#\	.	(4d#X/	.	2.ff#\	<
4E\	.	4c/	.	.	.
4D#X\)	.	4B/)	.	.	.
=124	=124	=124	=124	=124	=124
!	!	!	!LO:DY:b:t=F	!	!
(4G\	.	(4b/	f	8b\ 8bb	.
.	.	.	.	4b\ 4bb	.
4F#\	.	4a/	.	.	.
.	.	.	.	4b\ 4bb	.
4E\)	.	4g/)	.	.	.
.	.	.	.	8b\ 8bb	.
!	!	!	!	!LO:LB:g=original	!
=125	=125	=125	=125	=125	=125
(4D#X/	.	(4f#/	.	8b\ 8bb	.
.	.	.	.	4b\ 4bb	.
4C#X/	.	4e/	.	.	.
.	.	.	.	4b\ 4bb	.
4BB/)	.	4d#X/)	.	.	.
.	.	.	.	8b\ 8bb	.
=126	=126	=126	=126	=126	=126
8Cn/	.	8e/	.	(12aa#X\L	.
.	.	.	.	12gg\)	.
4C/	.	4e/	.	.	.
.	.	.	.	12ee`\J	.
.	.	.	.	(12aa#\L	.
.	.	.	.	12gg\)	.
8C/L	.	8e/L	.	.	.
.	.	.	.	12ee`\J	.
8C/	.	8e/	.	(12aa#\L	.
.	.	.	.	12gg\)	.
8C/J	.	8e/J	.	.	.
.	.	.	.	12ee`\J	.
=127	=127	=127	=127	=127	=127
8AA#X/	.	8e/	.	12cc#X\L	.
.	.	.	.	12ee\	.
4AA#/	.	4e/	.	.	.
.	.	.	.	12cc#\J	.
.	.	.	.	12a#X\L	.
.	.	.	.	12cc#\	.
*tremolo	*	*	*	*	*
8AA#/L	.	8c#X/	.	.	.
.	.	.	.	12ee\J	.
8AA#/	.	8c#/L	.	12gg\L	.
.	.	.	.	12ff#\	.
8AA#/J	.	8c#/J	.	.	.
.	.	.	.	12ee\J	.
=128	=128	=128	=128	=128	=128
4BB/	.	4B/	.	12dd#X\L	.
.	.	.	.	12b\	.
.	.	.	.	12a#X\J	.
4r	.	4r	.	12b\L	.
.	.	.	.	12a#\	.
.	.	.	.	12b\J	.
4r	.	4r	.	12ccn\L	.
.	.	.	.	12cc#X\	.
.	.	.	.	12dd#\J	.
=129	=129	=129	=129	=129	=129
!LO:TX:a:t=I	!	!LO:TX:a:t=I	!	!	!
2.r	.	2.r	.	12dd#X\L	.
.	.	.	.	12ee\	.
.	.	.	.	12ffn\J	.
.	.	.	.	12ff#X\L	.
.	.	.	.	12gg\	.
.	.	.	.	12gg#X\J	.
.	.	.	.	12aa\L	.
.	.	.	.	12aa#X\	.
.	.	.	.	12bb\J	.
!	!	!	!	!LO:LB:g=original	!
=130	=130	=130	=130	=130	=130
2.Cn/	.	8e/	.	12aa#X\L	.
.	.	.	.	12ggn\	.
.	.	4e/	.	.	.
.	.	.	.	12ee\J	.
.	.	.	.	12aa#\L	.
.	.	.	.	12gg\	.
.	.	8e/L	.	.	.
.	.	.	.	12ee\J	.
.	.	8e/	.	12aa#\L	.
.	.	.	.	12gg\	.
.	.	8e/J	.	.	.
.	.	.	.	12ee\J	.
=131	=131	=131	=131	=131	=131
2.AA#X/	.	8e/	.	12cc#X\L	.
.	.	.	.	12ee\	.
.	.	4e/	.	.	.
.	.	.	.	12cc#\J	.
.	.	.	.	12a#X\L	.
.	.	.	.	12cc#\	.
.	.	8c/L	.	.	.
.	.	.	.	12ee\J	.
.	.	8c/	.	12gg\L	.
.	.	.	.	12ee\	.
.	.	8c/J	.	.	.
.	.	.	.	12cc#\J	.
=132	=132	=132	=132	=132	=132
!	!	!	!	!	!LO:DY:b:t=F
.	.	.	.	8qqb/	f
4BB/	.	4d#X/	.	4.bb\	.
4r	.	4r	.	.	.
.	.	.	.	(16aa#X\LL	.
.	.	.	.	16gg\JJ	.
4r	.	4r	.	16ff#\LL	.
.	.	.	.	16ee\	.
.	.	.	.	16dd#X\	.
.	.	.	.	16cc#X\JJ)	.
=133	=133	=133	=133	=133	=133
4.B\	.	4.b\	.	4.b\	.
(16A#X\LL	.	(16a#X/LL	.	(16a#X/LL	.
16G\JJ	.	16g/JJ	.	16g/JJ	.
16F#\LL	.	16f#/LL	.	16f#/LL	.
16E\	.	16e/	.	16e/	.
16D#X\	.	16d#X/	.	16d#X/	.
16C#X\JJ)	.	16c#X/JJ)	.	16c#X/JJ)	.
!	!	!LO:LB:g=original	!	!	!
=134	=134	=134	=134	=134	=134
4BB/	.	4B/	.	4B/	.
4d#X\	.	4b\ 4ff#	.	4b\ 4aan	.
4d#\	.	4b\ 4ff#	.	4b\ 4aany	.
!LO:LB:g=original	!	!	!	!	!
=135	=135	=135	=135	=135	=135
4d#X\	.	4b\ 4ff#	.	4b\ 4aa	.
!LO:TX:t=P:problem: fermata pomiędzy pauzami	!	!	!	!	!
4r;	.	4r;	.	4r	.
4r	.	4r	.	4r;	.
!	!	!	!	!LO:LB:g=original	!
=136	=136	=136	=136	=136	=136
!LO:TX:a:t=4	!	!	!	!	!
!LO:N:vis=00	!	!	!	!	!
0.r	.	8e/L	.	2.gg\	p
.	.	8b/	.	.	.
.	.	8g/	.	.	.
.	.	8b/	.	.	.
.	.	8e/	.	.	.
.	.	8b/J	.	.	.
=137	=137	=137	=137	=137	=137
.	.	4g/	.	(8ff#\L	.
.	.	.	.	8ee\	.
.	.	4r	.	8dd#X\	.
.	.	.	.	8ee\	.
.	.	4r	.	8dd#\	.
.	.	.	.	8ee\J)	.
=138	=138	=138	=138	=138	=138
.	.	8d#X/L	.	2.aa\	.
.	.	8b/	.	.	.
.	.	8f#/	.	.	.
.	.	8b/	.	.	.
.	.	8f#/	.	.	.
.	.	8b/J	.	.	.
=139	=139	=139	=139	=139	=139
.	.	4a/	.	(8gg\L	.
.	.	.	.	8ff#\	.
.	.	4r	.	8ee#X\	.
.	.	.	.	8ff#\	.
.	.	4r	.	8ee#\	.
.	.	.	.	8ff#\J)	.
=140	=140	=140	=140	=140	=140
!LO:TX:b:i:t=rinf	!	!LO:TX:b:i:t=rinf	!	!	!
4EE/	.	4g/	.	(2.bb\	<
4GG/	.	4e/	.	.	.
4BB/	.	4B/	.	.	.
=141	=141	=141	=141	=141	=141
4E\	.	4G/	.	4bb\	.
4G\	.	4e/	.	4gg\	.
4A#X\	.	4c#X/	.	4ee\)	[[
=142	=142	=142	=142	=142	=142
4B\	p	4f#/	p	[4dd#X\	p
4F#\	.	4b/	.	8.dd#\L]	.
.	.	.	.	16ff#\K	.
4FF#/	.	4a#X/	.	8.ee\	.
.	.	.	.	16cc#X\Jk	.
=143	=143	=143	=143	=143	=143
8BB/L	.	4b\	.	4b\	.
8AA#X/	.	.	.	.	.
8BB/	.	4r	.	4r	.
8C#X/	.	.	.	.	.
8D#X/	.	4r	.	4r	.
8BB/J	.	.	.	.	.
=144	=144	=144	=144	=144	=144
!LO:TX:b:i:t=dol	!	!LO:TX:b:i:t=dol	!	!LO:TX:b:i:t=dol	!
8EE/L	.	2.b\	.	2.gg\	.
8E/	.	.	.	.	.
8BB/	.	.	.	.	.
8E/	.	.	.	.	.
8GG/	.	.	.	.	.
8E/J	.	.	.	.	.
=145	=145	=145	=145	=145	=145
4EE/	.	8a/L	.	(8ff#\L	.
.	.	8g/	.	8ee\	.
4r	.	8f#/	.	8dd#X\	.
.	.	8g/	.	8ee\	.
4r	.	8f#/	.	8dd#\	.
.	.	8e/J	.	8ee\J)	.
!	!	!	!	!LO:LB:g=original	!
=146	=146	=146	=146	=146	=146
8BB\L	.	2.d#X/	.	2.aa\	.
8B\	.	.	.	.	.
8F#\	.	.	.	.	.
8B\	.	.	.	.	.
8D#X\	.	.	.	.	.
8F#\J	.	.	.	.	.
=147	=147	=147	=147	=147	=147
4BB/	.	8b/L	.	(8gg\L	.
.	.	8a/	.	8ff#\	.
4r	.	8g/	.	8ee#X\	.
.	.	8a/	.	8ff#\	.
4r	.	8g/	.	8ee#\	.
.	.	8f#/J	.	8ff#\J)	.
!	!	!LO:LB:g=original	!	!	!
=148	=148	=148	=148	=148	=148
[2.E\	.	8g/L	.	4bb`\	.
!	!	!LO:TX:b:i:t=rinf	!	!	!
.	.	8f#/	.	.	.
!	!	!	!	!LO:TX:b:i:t=rinf	!
.	.	8e/	.	4gg`\	.
.	.	8dn/J	.	.	.
.	.	8cn/L	.	4ccc`\	.
.	.	16d/L	.	.	.
.	.	16e/JJ	.	.	.
=149	=149	=149	=149	=149	=149
4E\]	.	8f#/L	.	4aa`\	.
.	.	8g/	.	.	.
4D#X\	.	8a/	.	4ff#`\	.
.	.	8B/	.	.	.
[4BB/	.	8c#X/	.	4bb`\	.
.	.	8d#X/J	.	.	.
=150	=150	=150	=150	=150	=150
8BB/L]	.	8e/L	.	4gg\	.
8AA/	.	8f#/	.	.	.
8GG/	.	8g/	.	4ee\	.
8FF#/	.	8a/	.	.	.
8EE/	.	8g/	.	4ff#\	.
8DDn/J	.	8f#/J	.	.	.
!LO:LB:g=original	!	!	!	!	!
=151	=151	=151	=151	=151	=151
4CCn/	.	8e/L	.	4gg\	.
.	.	8f#/	.	.	.
2C/	.	8g/	.	4ee\	.
.	.	8f#/	.	.	.
.	.	8e/	.	4a#X/	.
.	.	8f#/J	.	.	.
=152	=152	=152	=152	=152	=152
!	!	!	!	!	!LO:DY:b:t=F
8BB\L	.	4d#X/	.	4b\	f
8B\	.	.	.	.	.
8F#\	.	4d#/	.	4b\	.
8B\	.	.	.	.	.
8D#X\	.	4d#/	.	4b\	.
8F#\J	.	.	.	.	.
=153	=153	=153	=153	=153	=153
8BB/L	.	4d/	.	4b\	.
8C/	.	.	.	.	.
8BB/	.	4r	.	4r	.
8AA/	.	.	.	.	.
8GG/	.	4r	.	4r	.
8FF#/J	.	.	.	.	.
=154	=154	=154	=154	=154	=154
!	!LO:DY:b:t=F	!	!LO:DY:b:t=F	!	!LO:DY:b:t=F
4EE/	f	4B/ 4gn	f	12ee\L	f
.	.	.	.	12b\	.
.	.	.	.	12cc#X\J	.
4r	.	4r	.	12dd#X\L	.
.	.	.	.	12ee\	.
.	.	.	.	12ff#\J	.
4E\	.	4B/ 4g	.	12gg\L	.
.	.	.	.	12aa\	.
.	.	.	.	12bb\J	.
!	!	!	!	!LO:LB:g=original	!
=155	=155	=155	=155	=155	=155
4D#X\	.	4B/ 4f#	.	(12aa\L	.
.	.	.	.	12bb\)	.
.	.	.	.	12ff#'\J	.
4r	.	4r	.	(12aan\L	.
.	.	.	.	12bb\)	.
.	.	.	.	12ff#'\J	.
4D#\	.	4B/ 4f#	.	(12aa#X\L	.
.	.	.	.	12bb\)	.
.	.	.	.	12ff#'\J	.
=156	=156	=156	=156	=156	=156
4E\	p	4B/ 4g	p	12gg\L	p
.	.	.	.	12b\	.
.	.	.	.	12cc\J	.
4r	.	4r	.	12dd#X\L	.
.	.	.	.	12ee\	.
.	.	.	.	12ff#\J	.
4E\	.	4B/ 4g	.	12gg\L	.
.	.	.	.	12aan\	.
.	.	.	.	12bb\J	.
=157	=157	=157	=157	=157	=157
4D#X\	.	4B/ 4f#	.	12aa#X\L	.
.	.	.	.	12bb\	.
.	.	.	.	12ff#\J	.
4r	.	4r	.	12aan\L	.
.	.	.	.	12bb\	.
.	.	.	.	12ff#\J	.
4D#\	.	4B/ 4f#	.	12aa#X\L	.
.	.	.	.	12bb\	.
.	.	.	.	12ff#\J	.
=158	=158	=158	=158	=158	=158
!	!LO:HP:b:t=cres	!	!	!LO:TX:b:i:t=rinf	!
2E\	<	8B/L	.	12gg'\L	.
.	.	.	.	(12bb\	.
.	.	8G/J	.	.	.
.	.	.	.	12aa\J)	.
!	!	!	!LO:HP:b:t=cres	!	!
.	.	[2e/	<	12gg'\L	.
.	.	.	.	(12gg\	.
.	.	.	.	12ff#\J)	.
4G\	.	.	.	12ee'\L	.
.	.	.	.	(12ee\	.
.	.	.	.	12ddn\J)	.
!	!	!	!	!LO:LB:g=original	!
=159	=159	=159	=159	=159	=159
2A\	.	8e/L]	.	12ccn\L	.
.	.	.	.	12ccc\	.
.	.	8cn/J	.	.	.
.	.	.	.	12bb\J	.
.	.	2f#/	.	12aa\L	.
.	.	.	.	12aa\	.
.	.	.	.	12gg\J	.
4A\	.	.	.	12ff#\L	.
.	.	.	.	12ff#\	.
.	.	.	.	12ee\J	.
=160	=160	=160	=160	=160	=160
!	!LO:DY:b:t=F	!	!LO:DY:b:t=F	!	!LO:DY:b:t=F
4B\	f	4f#/ 4a	f	16dd#X\KL	f
.	.	.	.	8.ddd\J	.
4cn\	.	4g/	.	16ee\KL	.
.	.	.	.	8.eee\J	.
4r	.	4r	.	4r	.
!	!	!LO:LB:g=original	!	!	!
=161	=161	=161	=161	=161	=161
4A\	p	4cc\	p	12ccc\L	p
.	.	.	.	12aa\	.
.	.	.	.	12ff#\J	.
4B\	.	4b\	.	4ee\	.
.	.	.	.	8qqgg/	.
4BB/	.	4a/	.	4ff#\	.
=162	=162	=162	=162	=162	=162
!	!LO:DY:b:t=F	!	!LO:DY:b:t=F	!	!LO:DY:b:t=F
4E\	f	4B/ 4g	f	12ee\L	f
.	.	.	.	12b\	.
.	.	.	.	12cc#X\J	.
4r	.	4r	.	12dd#X\L	.
.	.	.	.	12ee\	.
.	.	.	.	12ff#\J	.
4E\	.	4B/ 4g	.	12gg\L	.
.	.	.	.	12aa\	.
.	.	.	.	12bb\J	.
=163	=163	=163	=163	=163	=163
4D#X\	.	4B/ 4f#	.	(12aa#X\L	.
.	.	.	.	12bb\)	.
.	.	.	.	12ff#'\J	.
4D#\	.	4B/ 4f#	.	(12aan\L	.
.	.	.	.	12bb\)	.
.	.	.	.	12ff#'\J	.
4D#\	.	4B/ 4f#	.	(12aa#X\L	.
.	.	.	.	12bb\)	.
.	.	.	.	12ff#'\J	.
!	!	!	!	!LO:LB:g=original	!
=164	=164	=164	=164	=164	=164
4E\	p	4B/ 4g	p	12gg\L	.
.	.	.	.	12b\	.
.	.	.	.	12cc#X\J	.
4r	.	4r	.	12dd#X\L	.
.	.	.	.	12ee\	.
.	.	.	.	12ff#\J	.
4E\	.	4B/ 4g	.	12gg\L	.
.	.	.	.	12aan\	.
.	.	.	.	12bb\J	.
!LO:LB:g=original	!	!	!	!	!
=165	=165	=165	=165	=165	=165
4D#X\	.	4B/ 4f#	.	(12aa#X\L	.
.	.	.	.	12bb\)	.
.	.	.	.	12ff#'\J	.
4D#\	.	4B/ 4f#	.	(12aan\L	.
.	.	.	.	12bb\)	.
.	.	.	.	12ff#'\J	.
4D#\	.	4B/ 4f#	.	(12aa#X\L	.
.	.	.	.	12bb\)	.
.	.	.	.	12ff#'\J	.
=166	=166	=166	=166	=166	=166
4E\	.	4B/ 4g	.	(12gg\L	.
.	.	.	.	12bb\)	.
.	.	.	.	12ff#'\J	.
4r	.	4r	.	(12gg\L	.
.	.	.	.	12bb\)	.
.	.	.	.	12ff#'\J	.
(4BB/	.	[4g/	>	(12gg\L	.
.	.	.	.	12bb\)	.
.	.	.	.	12dd#X'\J	.
=167	=167	=167	=167	=167	=167
4AA/)	.	4g/]	.	12ee\L	.
.	.	.	.	12gg\	.
.	.	.	.	12dd#X\J	.
4r	.	4r	]	12ee\L	.
.	.	.	.	12gg\	.
.	.	.	.	12dd#\J	.
4GG/	.	[4e/	>	12ee\L	.
.	.	.	.	12gg\	.
.	.	.	.	12b\J	.
!	!	!	!	!LO:LB:g=original	!
=168	=168	=168	=168	=168	=168
4AA/	.	4e/]	.	12cc\L	.
.	.	.	.	12ee\	.
.	.	.	.	12b\J	.
4r	.	4r	]	12cc\L	.
.	.	.	.	12ee\	.
.	.	.	.	12b\J	.
4EE/	.	[4c/	>	12cc\L	.
.	.	.	.	12ee\	.
.	.	.	.	12g#X\J	.
=169	=169	=169	=169	=169	=169
4FF#/	.	4c/]	.	12a\L	.
.	.	.	.	12cc\	.
.	.	.	.	12b\J	.
4r	.	4r	]	12a\L	.
.	.	.	.	12cc\	.
.	.	.	.	12b\J	.
4r	.	4r	.	12a/L	.
.	.	.	.	12b/	.
.	.	.	.	12g/J	.
=170	=170	=170	=170	=170	=170
4AA/	.	4c/	.	12a\L	.
.	.	.	.	12cc\	.
.	.	.	.	12b\J	.
4r	.	4r	.	12a\L	.
.	.	.	.	12cc\	.
.	.	.	.	12b\J	.
4r	.	4r	.	12a/L	.
.	.	.	.	12b/	.
.	.	.	.	12g/J	.
=171	=171	=171	=171	=171	=171
4AA/	.	4c/	.	12f#\L	.
.	.	.	.	12a\	.
.	.	.	.	12cc\J	.
4AA/	.	4c/	.	12ff#\L	.
.	.	.	.	12cc\	.
.	.	.	.	12ff#\J	.
4AA/	.	4c/	.	12aa\L	.
.	.	.	.	12ff#\	.
.	.	.	.	12aa\J	.
!	!	!	!	!LO:LB:g=original	!
=172	=172	=172	=172	=172	=172
4AA/	.	4c/	.	12ccc\L	.
.	.	.	.	12aa\	.
.	.	.	.	12ff#\J	.
4r	.	4r	.	12cc\L	.
.	.	.	.	12ff#\	.
.	.	.	.	12aa\J	.
4r	.	4r	.	12ccc\L	.
.	.	.	.	12aa\	.
.	.	.	.	12ff#\J	.
=173	=173	=173	=173	=173	=173
4BB/	.	4G/ 4e	.	12bb\L	.
.	.	.	.	12gg\	.
.	.	.	.	12ee\J	.
4r	.	4r	.	12b\L	.
.	.	.	.	12ee\	.
.	.	.	.	12gg\J	.
4r	.	4r	.	12bb\L	.
.	.	.	.	12gg\	.
.	.	.	.	12ee\J	.
=174	=174	=174	=174	=174	=174
4BB/	.	4G/ 4e	.	12bb\L	.
.	.	.	.	12gg\	.
.	.	.	.	12ee\J	.
4r	.	4r	.	12b\L	.
.	.	.	.	12ee\	.
.	.	.	.	12gg\J	.
4r	.	4r	.	12bb\L	.
.	.	.	.	12gg\	.
.	.	.	.	12ee\J	.
=175	=175	=175	=175	=175	=175
4B\	.	4g\ 4ee	.	12bb\L	.
.	.	.	.	12e/	.
.	.	.	.	12f#/J	.
4r	.	4r	.	12g/L	.
.	.	.	.	12a/	.
.	.	.	.	12b/J	.
4r	.	4r	.	12cc\L	.
.	.	.	.	12dd#X\	.
.	.	.	.	12ee\J	.
!	!	!	!	!LO:LB:g=original	!
=176	=176	=176	=176	=176	=176
!LO:TX:a:t=I	!	!LO:TX:a:t=I	!	!	!
2.r	.	2.r	.	12ff#\L	.
.	.	.	.	12gg\	.
.	.	.	.	12aa\J	.
.	.	.	.	12bb\L	.
.	.	.	.	12ccc\	.
.	.	.	.	12ddd#X\J	.
.	.	.	.	8.eee\L	.
.	.	.	.	16ee\Jk	.
=177	=177	=177	=177	=177	=177
4B\	.	8ee\L	.	[2.ff#t\	.
.	.	8ee\	.	.	.
4B\	.	8ee\	.	.	.
.	.	8ee\	.	.	.
4B\	.	8ee\	.	.	.
.	.	8ee\J	.	.	.
=178	=178	=178	=178	=178	=178
*	*	*tremolo	*	*	*
8B\L	.	8dd#X\L	.	2.ff#t\]	.
8BB/J	.	8dd#\	.	.	.
8BB/L	.	8dd#\	.	.	.
8BB/	.	8dd#\	.	.	.
8BB/	.	8dd#\	.	.	.
8BB/J	.	8dd#\J	.	.	.
!	!	!LO:LB:g=original	!	!	!
=179	=179	=179	=179	=179	=179
!LO:TX:t=P:problem:mixed beam	!	!	!	!LO:TX:a:i:t=dol	!
8EE/L	p	8ee#X\L	p	2ee\	.
8E\J	.	8b\	.	.	.
8E\L	.	8g\	.	.	.
8E\	.	8b\	.	.	.
8E\	.	8a\	.	4dd#X\	.
8E\J	.	8ccn\J	.	.	.
=180	=180	=180	=180	=180	=180
8E\L	.	8a/L	.	4ccn'\	.
8E\	.	8cc/	.	.	.
8E\	.	8g/	.	4dd#X\	.
8E\	.	8b/	.	.	.
8E\	.	8f#/	.	4b\	.
8E\J	.	8a/J	.	.	.
!LO:LB:g=original	!	!	!	!	!
=181	=181	=181	=181	=181	=181
8E\L	.	8g/L	.	2ee\	.
8e\J	.	8b/	.	.	.
8e\L	.	8g/	.	.	.
8e\	.	8b/	.	.	.
8e\	.	8a/	.	4dd#X\	.
8e\J	.	8ccn/J	.	.	.
=182	=182	=182	=182	=182	=182
8e\L	.	8a/L	.	4cc\	.
8e\	.	8cc/	.	.	.
8e\	.	8g/	.	4dd#X\	.
8e\	.	8b/	.	.	.
8e\	.	8f#/	.	4b\	.
8e\J	.	8a/J	.	.	.
=183	=183	=183	=183	=183	=183
!	!LO:DY:b:t=F	!	!LO:DY:b:t=F	!	!LO:DY:b:t=F
2.E\	f	2.e/	f	(2.ee\	f
=184	=184	=184	=184	=184	=184
2.F#\	.	2.f#/	.	2.ff#\)	.
=185	=185	=185	=185	=185	=185
8qqA/	.	8qqa/	.	8qqaa/	.
4G\	.	4g/	.	4gg\	.
4F#\	.	4f#/	.	4ff#\	.
4G\	.	4g/	.	4gg\	.
!	!	!	!	!LO:LB:g=original	!
=186	=186	=186	=186	=186	=186
4F#\	.	4f#/	.	4ff#\	.
4.B\	.	4.b/	.	4.bb\	.
8A\	.	8a/	.	8aa\	.
=187	=187	=187	=187	=187	=187
8qqA/	.	8qqa/	.	8qqaa/	.
4G\	.	4g/	.	4gg\	.
4F#\	.	4f#/	.	4ff#\	.
4G\	.	4g/	.	4gg\	.
=188	=188	=188	=188	=188	=188
4E\	.	4e/	.	4ee\	.
4.c\	.	4.cc\	.	4.ccc\	.
8B\	.	8b\	.	8bb\	.
=189	=189	=189	=189	=189	=189
!	!LO:DY:b:t=FF	!	!LO:DY:b:t=FF	!	!LO:DY:b:t=FF
8.A#X\L	ff	4cc#X\	ff	8aa#X\	ff
.	.	.	.	4eee\	.
16A#\K	.	.	.	.	.
8.Gn\	.	8.cc#\L	.	.	.
.	.	.	.	4eee\	.
16G\K	.	16cc#\K	.	.	.
8.E\	.	8.cc#\	.	.	.
.	.	.	.	[8eee\	.
16E\Jk	.	16cc#\Jk	.	.	.
!	!	!LO:LB:g=original	!	!	!
=190	=190	=190	=190	=190	=190
8.Cn/L	.	8.ee\L	.	8eee\]	.
.	.	.	.	4eee\	.
16C/K	.	16ee\K	.	.	.
8.E/	.	8.ggn\	.	.	.
.	.	.	.	4eee\	.
16E/Jk	.	16gg\K	.	.	.
8.AA#X/L	.	8.gg\	.	.	.
.	.	.	.	8eee\	.
16AA#/Jk	.	16gg\Jk	.	.	.
=191	=191	=191	=191	=191	=191
4BB/	.	4gg\	.	4eee\	.
4r	.	4r	.	4r	.
4r	.	4r	.	4r	.
!LO:LB:g=original	!	!	!	!	!
=192	=192	=192	=192	=192	=192
4B\	p	4a\ 4ff#	p	4ddd#X\	p
4r	.	4r	.	4r	.
4r	.	4r	.	4r	.
=193	=193	=193	=193	=193	=193
!	!LO:DY:b:t=F	!	!LO:DY:b:t=F	!	!LO:DY:b:t=F
4EE/	f	8.G/L	f	8.eee\L	f
.	.	16B/K	.	16bb\Jk	.
4E\	.	8.B/	.	8.bb\L	.
.	.	16e/K	.	16gg\Jk	.
4E\	.	8.e/	.	8.gg\L	.
.	.	16g/Jk	.	16ee\Jk	.
!	!	!	!	!LO:LB:g=original	!
=194	=194	=194	=194	=194	=194
4EE/	.	8.e/L	.	8.bb\L	.
.	.	16g/K	.	16gg\Jk	.
4E\	.	8.g/	.	8.gg\L	.
.	.	16b/K	.	16ee\Jk	.
4E\	.	8.b/	.	8.ee\L	.
.	.	16ee/Jk	.	16b\Jk	.
=195	=195	=195	=195	=195	=195
4EE/	.	8.g\L	.	8.gg\L	.
.	.	16b\K	.	16ee\Jk	.
4E\	.	8.b\	.	8.ee\L	.
.	.	16ee\K	.	16b\Jk	.
4E\	.	8.ee\	.	8.b\L	.
.	.	16gg\Jk	.	16g\Jk	.
=196	=196	=196	=196	=196	=196
8.EE/L	.	4bb\	.	(8e/L	.
.	.	.	.	8B/	.
16GG/K	.	.	.	.	.
8.GG/	.	4gg\	.	8e/	.
.	.	.	.	8g/	.
16BB/K	.	.	.	.	.
8.BB/	.	4ee\	.	8b/	.
.	.	.	.	8g/J)	.
16E/Jk	.	.	.	.	.
=197	=197	=197	=197	=197	=197
8.BB\L	.	4b\	.	(8e/L	.
.	.	.	.	8B/	.
16E\K	.	.	.	.	.
8.E\	.	4g/	.	8e/	.
.	.	.	.	8g/	.
16G\K	.	.	.	.	.
8.G\	.	4e/	.	8b/	.
.	.	.	.	8g/J)	.
16B\Jk	.	.	.	.	.
=198	=198	=198	=198	=198	=198
8.G\L	.	4B/	.	4e/	.
16B\K	.	.	.	.	.
8.B\	.	4r	.	4r	.
16G\K	.	.	.	.	.
8.G\	.	4r	.	4r	.
16E\Jk	.	.	.	.	.
=199	=199	=199	=199	=199	=199
4E\	.	4g\ 4b 4ee	.	4eee\	.
4r	.	4r	.	4r	.
4r	.	4r	.	4r	.
=200	=200	=200	=200	=200	=200
4EE/	.	4g/ 4b	.	4G/ 4e	.
4r	.	4r	.	4r	.
4r	.	4r	.	4r	.
==	==	==	==	==	==
*-	*-	*-	*-	*-	*-
!!!system-decoration: [(s1,s2,s3)]
!!!RDF**kern: > = above
!!!RDF**kern: < = below
!!!ENC: Marta Opryszak
!!!END: 2022-05-28
!!!ENC: Jan Barakat
!!!END: 2022-07-04
